!!!OTL: Der Waechter.
!!!ARE: Europa, Mitteleuropa, Deutschland
!!!SCT: A0102
!!!TXL: @@GMH
!!!YEM: Copyright 1995, estate of Helmut Schaffrath.
**kern	**text
*M4/2	*
*met(c|)	*
*clefC3	*
*k[b-]	*
*g:dor	*
!LO:TX:a:t=dor. tr. 1)	!
2ryy	.
{2G	Der
=1	=1
2G	wech-
2A	-ter
2B-	der
2G	bließ
=2	=2
*lig	*
2d	an
4c/	.
4B-/	.
2A	.
*Xlig	*
2A	den
=3	=3
1G	tag,
2r}	.
{2G	an
=4	=4
2d	ei-
2e	-ner
!LO:TX:a:t=2)	!
2f	ʒin-
2d	-nen
=5	=5
2g	da
2e	er
1d	lag,
=6	=6
1r}	.
{1g	er
=7	=7
2a	blie-
2g	-ſe
!LO:TX:a:t=3)	!
2f	an
2d	des
=8	=8
2f	ta-
2d	-ges
1B-}	ſchein:
=9	=9
{2r	.
2f	wo
*lig	*
2f	ʒwei
2d	.
*Xlig	*
=10	=10
1g	lieb
2d	bei
2d	ein-
=11	=11
2c	-an-
2B-	-der
2c}	ſein,
!LO:TX:a:t=P:note in parenthesis:problem	!
{2c	.
=12	=12
1d	ſchei-
2B-	-den
2G	ſich
=13	=13
1F	bald!
1r}	.
=14	=14
{1f	es
2f	ta-
2d	-get
=15	=15
1g	vor
2d	dem
*lig	*
1d	grü-
=16-	=16-
.	.
4c	.
4B-	.
2A	.
*Xlig	*
2A	-nen
=17	=17
1G/ll}	wald.
==	==
!!!GTL: Tage- oder Wächterlieder
!!!AGN: Romanze, Ballade, Lied
!! Aus: 68 Lieder. Nuernberg J. Berg und Newber (1542) No. 55.
!!!ONB: ESAC (Essen Associative Code) Database: ALTDEU
!!!AMT: simple quadruple
!!!AIN: vox
!!!EED: Helmut Schaffrath
!!!EEV: 1.0
!!!RDF**kern: l = terminal long
!!!AMD: Dorian
!!!URL-scan: https://rosdok.uni-rostock.de/mcrviewer/recordIdentifier/rosdok_ppn738218359/iview2/phys_0269.iview2?x=-425.8853427895981&y=2283.5172577041667&scale=0.4823261117445838&rotation=0&layout=singlePageLayout
!!!ENC: Anna Maria Matuszewska
!!!EEV: 2024/22/02
*-	*-
